public/logo.svg

<svg width="70" height="70" viewBox="0 0 70 70" fill="none" xmlns="http://www.w3.org/2000/svg">
    <rect x="0.75" y="0.75" width="68.5" height="68.5" rx="7.25" stroke="white" stroke-width="1.5"/>
    <path d="M17.1133 63H28.1133L39.1133 8H28.1133L17.1133 63Z" stroke="white"/>
    <path d="M19.1151 53L17.1151 63C9.70665 62.9821 7.43232 61.0816 8.11508 53H19.1151Z" stroke="white"/>
    <path d="M47 63H30L32 53H49L47 63Z" stroke="white"/>
    <path d="M56 18H39L41 8H58L56 18Z" stroke="white"/>
    <path d="M34.6016 40H48.5869L50.5984 30H36.5959L34.6016 40Z" stroke="white"/>
</svg>

<svg xmlns="http://www.w3.org/2000/svg" width="70" height="70" fill="none" viewBox="0 0 70 70"><rect width="68.5" height="68.5" x=".75" y=".75" stroke="#fff" stroke-width="1.5" rx="7.25"/><path stroke="#fff" d="M17.113 63h11l11-55h-11z"/><path stroke="#fff" d="m19.115 53-2 10c-7.408-.018-9.683-1.918-9-10zM47 63H30l2-10h17zm9-45H39l2-10h17zM34.602 40h13.985l2.011-10H36.596z"/></svg>
